build/img/delivery__01.svg

<svg width="140" height="140" viewBox="0 0 140 140" fill="none" xmlns="http://www.w3.org/2000/svg">
<path opacity="0.05" fill-rule="evenodd" clip-rule="evenodd" d="M58.8077 3.03545C71.1588 1.84499 80.5415 13.8616 91.6067 19.9618C105.507 27.6252 125.175 27.9617 131.853 43.3048C138.511 58.6022 128.072 75.9201 122.914 91.8914C117.898 107.423 115.863 127.15 102.379 134.566C88.9248 141.965 73.4969 130.81 58.8077 127.147C47.8792 124.422 36.7578 123.065 27.6524 115.934C18.5095 108.775 11.1012 98.9836 7.84174 87.2363C4.62376 75.6387 5.80173 63.1206 9.86947 51.8448C13.7649 41.0467 22.1152 33.7347 29.9677 25.9028C38.9583 16.9359 46.6702 4.20531 58.8077 3.03545Z" fill="#0B9EC7"/>
<path opacity="0.05" fill-rule="evenodd" clip-rule="evenodd" d="M70.8999 0.396751C85.1676 2.53238 92.6159 19.2295 104.073 28.7428C115.154 37.9437 131.261 41.2516 136.854 55.1599C142.584 69.4111 140.02 86.9953 132.926 100.497C126.408 112.901 112.238 116.359 100.913 123.563C91.0059 129.866 82.3529 139.273 70.8999 139.956C59.1254 140.658 49.0561 132.804 38.4035 127.29C24.8847 120.293 4.09236 119.308 0.438053 103.486C-3.28694 87.3579 17.8156 77.185 23.2408 61.641C28.2135 47.3937 21.3299 29.3356 30.3755 17.7116C39.9972 5.3472 56.1657 -1.80868 70.8999 0.396751Z" fill="#0B9EC7"/>
<path d="M76.5127 45.6843L78.3365 47.4212H89.3654L86.2391 45.6843H76.5127Z" fill="#007AAD"/>
<path d="M66.7865 45.6843L64.9629 47.4212H75.0366L73.2128 45.6843H66.7865Z" fill="#007AAD"/>
<path d="M40.4736 47.4212H46.6394L50.1999 45.6843H44.642L40.4736 47.4212Z" fill="#007AAD"/>
<path d="M63.9211 52.458C63.9211 56.0185 66.4395 58.8843 69.9999 58.8843C73.5604 58.8843 76.0788 56.0185 76.0788 52.458V50.0264H63.9209V52.458H63.9211Z" fill="#007AAD"/>
<path d="M93.7074 56.0184C91.7972 60.5742 86.5556 62.719 81.9998 60.8087C80.2064 60.0568 78.707 58.7409 77.7284 57.0604C76.1099 59.793 73.1753 61.4746 69.9994 61.4894C66.8499 61.4597 63.9344 59.8216 62.2705 57.1474C59.7453 61.3933 54.2563 62.7881 50.0103 60.263C48.3308 59.2642 47.0247 57.743 46.2915 55.9316L45.6836 56.4527C45.7704 56.5395 45.6836 56.7132 45.6836 56.9738V78.6843H94.3151V56.9737C94.3151 56.7132 94.2284 56.5395 94.3151 56.4526L93.7074 56.0184Z" fill="#0B9EC7"/>
<path d="M48.2891 52.458C48.2891 56.0552 51.2051 58.9712 54.8023 58.9712C58.3995 58.9712 61.3155 56.0552 61.3155 52.458V50.0264H48.2891V52.458Z" fill="#007AAD"/>
<path d="M63.4869 45.6843H54.9763L51.2422 47.4212H61.6633L63.4869 45.6843Z" fill="#007AAD"/>
<path d="M44.2949 43.0788H97.1817C97.4422 43.0788 97.8765 42.9921 98.05 43.1656L100.395 44.4683V41.8631C100.261 40.1279 98.8346 38.7764 97.0948 38.7368H42.9055C41.1656 38.7764 39.7389 40.1279 39.6055 41.8631V44.9894L43.5133 43.0788C43.687 42.9921 44.0343 43.0788 44.2949 43.0788Z" fill="#0B9EC7"/>
<path d="M96.9214 57.8423V79.5528C96.8286 80.408 96.1988 81.1076 95.3583 81.2896H44.6423C43.8016 81.1076 43.1719 80.408 43.0792 79.5528V57.8423C42.3538 58.1041 41.592 58.2505 40.8212 58.2765L39.6055 58.1028V82.4186C39.7351 84.1697 41.1515 85.5487 42.9055 85.6318H97.0949C98.8489 85.5489 100.265 84.1699 100.395 82.4186V58.1028L99.1792 58.2765C98.4086 58.2505 97.6466 58.1041 96.9214 57.8423Z" fill="#0B9EC7"/>
<path d="M94.3154 50.0264V51.1553C94.3154 53.5534 96.2594 55.4974 98.6575 55.4974C101.056 55.4974 102.999 53.5534 102.999 51.1553V50.0264H94.3154Z" fill="#007AAD"/>
<path d="M79.5526 88.2368H60.4473V94.3157H79.5526V88.2368Z" fill="#0B9EC7"/>
<path d="M86.5003 96.9211H52.6318V101.263H86.5003V96.9211Z" fill="#0B9EC7"/>
<path d="M85.1976 58.8843C88.7611 58.8846 91.6633 56.0211 91.7108 52.458V50.0264H78.6846V52.458C78.7319 56.0211 81.6342 58.8846 85.1976 58.8843Z" fill="#007AAD"/>
<path d="M96.8345 45.6843H90.4951L93.4477 47.4212H100.308L96.8345 45.6843Z" fill="#007AAD"/>
<path d="M45.6842 51.1553V50.0264H37V51.1553C37 53.5534 38.944 55.4974 41.342 55.4974C43.7401 55.4975 45.6842 53.5534 45.6842 51.1553Z" fill="#007AAD"/>
</svg>

<svg width="140" height="140" fill="none" xmlns="http://www.w3.org/2000/svg"><path opacity=".05" fill-rule="evenodd" clip-rule="evenodd" d="M58.808 3.035c12.35-1.19 21.733 10.827 32.799 16.927 13.9 7.663 33.568 8 40.246 23.343 6.658 15.297-3.781 32.615-8.939 48.586-5.016 15.532-7.051 35.259-20.535 42.675-13.454 7.399-28.882-3.756-43.571-7.419-10.929-2.725-22.05-4.082-31.156-11.213-9.143-7.159-16.55-16.95-19.81-28.698-3.218-11.597-2.04-24.115 2.027-35.391 3.896-10.798 12.246-18.11 20.099-25.942 8.99-8.967 16.702-21.698 28.84-22.868z" fill="#0B9EC7"/><path opacity=".05" fill-rule="evenodd" clip-rule="evenodd" d="M70.9.397c14.268 2.135 21.716 18.833 33.173 28.346 11.081 9.2 27.188 12.509 32.781 26.417 5.73 14.251 3.166 31.835-3.928 45.337-6.518 12.404-20.688 15.862-32.013 23.066-9.907 6.303-18.56 15.71-30.013 16.393-11.775.702-21.844-7.152-32.497-12.666-13.518-6.997-34.31-7.982-37.965-23.804-3.725-16.128 17.378-26.301 22.803-41.845 4.973-14.247-1.911-32.305 7.134-43.93C39.998 5.348 56.165-1.808 70.9.398z" fill="#0B9EC7"/><path d="M76.513 45.684l1.823 1.737h11.03l-3.127-1.737h-9.726zm-9.726 0l-1.824 1.737h10.074l-1.824-1.737h-6.426zm-26.313 1.737h6.165l3.56-1.737h-5.557l-4.168 1.737zm23.447 5.037c0 3.56 2.518 6.426 6.079 6.426 3.56 0 6.079-2.865 6.079-6.426v-2.432H63.92v2.432z" fill="#007AAD"/><path d="M93.707 56.018a8.945 8.945 0 01-15.979 1.042A9.032 9.032 0 0170 61.49a9.205 9.205 0 01-7.728-4.343 8.945 8.945 0 01-15.98-1.215l-.607.52c.086.087 0 .261 0 .522v21.71h48.631v-21.71c0-.26-.087-.434 0-.521l-.608-.435z" fill="#0B9EC7"/><path d="M48.29 52.458a6.513 6.513 0 1013.026 0v-2.432H48.288v2.432zm15.197-6.774h-8.51l-3.735 1.737h10.421l1.824-1.737z" fill="#007AAD"/><path d="M44.295 43.079h52.887c.26 0 .694-.087.868.087l2.345 1.302v-2.605a3.388 3.388 0 00-3.3-3.126h-54.19a3.387 3.387 0 00-3.3 3.126v3.126l3.908-1.91c.174-.087.521 0 .782 0zm52.626 14.763v21.71a1.998 1.998 0 01-1.563 1.738H44.642a1.997 1.997 0 01-1.563-1.737v-21.71a7.384 7.384 0 01-2.258.433l-1.215-.173v24.316a3.474 3.474 0 003.3 3.213h54.189a3.474 3.474 0 003.3-3.213V58.103l-1.216.173a7.383 7.383 0 01-2.258-.434z" fill="#0B9EC7"/><path d="M94.315 50.026v1.13a4.342 4.342 0 108.684 0v-1.13h-8.684z" fill="#007AAD"/><path d="M79.553 88.237H60.447v6.079h19.106v-6.08zm6.947 8.684H52.632v4.342H86.5v-4.342z" fill="#0B9EC7"/><path d="M85.198 58.884a6.513 6.513 0 006.513-6.426v-2.432H78.685v2.432a6.513 6.513 0 006.513 6.426zm11.637-13.2h-6.34l2.953 1.737h6.86l-3.474-1.737zm-51.151 5.471v-1.129H37v1.13a4.342 4.342 0 108.684 0z" fill="#007AAD"/></svg>
